X:1
T:High Germany
M:4/4
L:1/4
K:G
 B| B E E D|E/2-G/2 B2 B| A G E D| E3|B/2-A/2| G G G B| d2 e d/2d/2|\
 d BA/2-B/2 c| B3|B/2-A/2| G G G B| d d e d| d B A G| A3| G/2A/2| B E E3/2 D/2|\
 E G B B| A- G E D| E3||

